X:268
T: TREUE LIEBE BIS ZUM GRABE
N: F0468
O: Europa, Mitteleuropa, Deutschland
R: Vaterlands -, Heimat - Lied
M: 3/4
L: 1/16
K: G
D3G | B4B4A3B | A2G2G4
G3B | d6e2c2d2 | B8
G3B | A6A2B3^c | d4A4
A3d | f6c2e3^c | d8
A2B2 | c6A2G2B2 | B2A2A4
A2B2 | c6A2G2B2 | B4A4z4
G3GA2B2c2d2 | e4c4
g3e | d6B2c3A | G8

